dist/icons/svgs/rotate-right-solid.svg

<svg xmlns="http://www.w3.org/2000/svg" width="24" height="24" fill="currentcolor" class="icon-rotate-right-solid" viewBox="0 0 24 24">
  <path d="M20.0859 10.75H15.4375C15.0469 10.75 14.6953 10.5547 14.5391 10.2031C14.4219 9.85158 14.5 9.4219 14.7734 9.14846L16.375 7.5469C13.9141 5.16408 10.0078 5.16408 7.54688 7.58596C5.125 10.0469 5.125 13.9922 7.54688 16.4531C10.0078 18.875 13.9531 18.875 16.4141 16.4531C16.8828 15.9453 17.6641 15.9453 18.1719 16.4531C18.6406 16.9219 18.6406 17.7031 18.1719 18.211C14.7344 21.6094 9.22656 21.6094 5.78906 18.211C2.39062 14.7735 2.39062 9.26565 5.78906 5.82815C9.1875 2.42971 14.6953 2.42971 18.1328 5.78908L19.7734 4.14846C20.0078 3.91408 20.4375 3.83596 20.7891 3.95315C21.1406 4.1094 21.375 4.46096 21.375 4.81252V9.81252C21.375 10.3594 20.9453 10.75 20.4375 10.75H20.0859Z"/>
</svg>

<svg xmlns="http://www.w3.org/2000/svg" width="24" height="24" fill="currentColor" class="icon-rotate-right-solid" viewBox="0 0 24 24">
  <path d="M20.086 10.75h-4.648c-.391 0-.743-.195-.899-.547a1.05 1.05 0 0 1 .234-1.055l1.602-1.601a6.31 6.31 0 0 0-8.828.039 6.32 6.32 0 0 0 0 8.867 6.32 6.32 0 0 0 8.867 0c.469-.508 1.25-.508 1.758 0 .469.469.469 1.25 0 1.758a8.794 8.794 0 0 1-12.383 0 8.794 8.794 0 0 1 0-12.383C9.188 2.43 14.695 2.43 18.133 5.79l1.64-1.64c.235-.235.665-.313 1.016-.196.352.156.586.508.586.86v5c0 .546-.43.937-.937.937z"/>
</svg>
